X: 26032
T: Mazurka Des Écoliers De Saint Genest
R: mazurka
M: 3/4
K: Eminor
|:B2 B>c d>e|B2B>B c>B|A2 B>A G>F|G2 E>E F>E|
B2 B>c d>e|B2B>B c>B|A2 B>A G>A|F2F:|
|:c2 c>B c>d|e2e>e d>c|B2 B>A B>c|B2B>c e>d|
c2 c>B c>d|e2e>e d>c|B2 A>G F>G|1 F2F:|2 E2E||

